svg/weather/cloud_windy_fill.svg

<?xml version="1.0" encoding="UTF-8"?>
<svg width="24px" height="24px" viewBox="0 0 24 24" version="1.1" xmlns="http://www.w3.org/2000/svg" xmlns:xlink="http://www.w3.org/1999/xlink">
    <title>cloud_windy_fill</title>
    <g id="Icon" stroke="none" stroke-width="1" fill="none" fill-rule="evenodd">
        <g id="Weather" transform="translate(-49.000000, -144.000000)" fill-rule="nonzero">
            <g id="cloud_windy_fill" transform="translate(49.000000, 144.000000)">
                <path d="M24,0 L24,24 L0,24 L0,0 L24,0 Z M12.5935,23.2578 L12.5819,23.2595 L12.5109,23.295 L12.4919,23.2987 L12.4767,23.295 L12.4057,23.2595 C12.3958,23.2564 12.387,23.259 12.3821,23.2649 L12.378,23.2758 L12.3609,23.7031 L12.3659,23.7235 L12.3769,23.7357 L12.4805,23.8097 L12.4953,23.8136 L12.5071,23.8097 L12.6107,23.7357 L12.6233,23.7197 L12.6267,23.7031 L12.6096,23.2758 C12.6076,23.2657 12.601,23.2593 12.5935,23.2578 Z M12.8584,23.1453 L12.8445,23.1473 L12.6598,23.2397 L12.6499,23.2499 L12.6472,23.2611 L12.6651,23.6906 L12.6699,23.7034 L12.6784,23.7105 L12.8793,23.8032 C12.8914,23.8069 12.9022,23.803 12.9078,23.7952 L12.9118,23.7812 L12.8777,23.1665 C12.8753,23.1546 12.8674,23.147 12.8584,23.1453 Z M12.143,23.1473 C12.1332,23.1424 12.1222,23.1453 12.1156,23.1526 L12.1099,23.1665 L12.0758,23.7812 C12.0751,23.7927 12.0828,23.8019 12.0926,23.8046 L12.1083,23.8032 L12.3092,23.7105 L12.3186,23.7024 L12.3225,23.6906 L12.3404,23.2611 L12.3372,23.2485 L12.3278,23.2397 L12.143,23.1473 Z" id="MingCute"></path>
                <path d="M14.5,16 C15.8807,16 17,17.1193 17,18.5 C17,19.8807 15.8807,21 14.5,21 C13.8603,21 13.2747,20.7585 12.8331,20.3632 C12.4216,19.9949 12.3865,19.3627 12.7549,18.9511 C13.0948692,18.5712538 13.6597,18.5122124 14.0682413,18.7950547 L14.1669,18.8729 C14.256,18.9527 14.3713,19 14.5,19 C14.7761,19 15,18.7761 15,18.5 C15,18.2239 14.7761,18 14.5,18 L7,18 C6.44772,18 6,17.5523 6,17 C6,16.4477 6.44772,16 7,16 L14.5,16 Z M11.5001,2 C14.2857,2 16.6601,3.75154 17.5857,6.21198 C20.1301,6.90766 22.0001,9.23462 22.0001,12 C22.0001,14.2882 20.7192,16.2772 18.8353,17.2892 C18.3973,15.7176 17.1276,14.4926 15.5304,14.1185 C15.8318,13.4752 16.0001,12.7573 16.0001,12 C16.0001,9.23858 13.7615,7 11.0001,7 C9.14562,7 7.53085,8.01115 6.67085,9.49782 C6.39674,9.97168 6.2667,10.4893 6.26717,11 L3.0001,11 C2.79084,11 2.58658,11.0214 2.3894,11.0622 C2.88703,9.87964 3.82639,8.92907 5.00063,8.41614 C5.04553,4.86494 7.93824,2 11.5001,2 Z M11,9 C12.6569,9 14,10.3431 14,12 C14,13.6569 12.6569,15 11,15 L3,15 C2.44772,15 2,14.5523 2,14 C2,13.4477 2.44772,13 3,13 L11,13 C11.5523,13 12,12.5523 12,12 C12,11.4477 11.5523,11 11,11 C10.6720889,11 10.3800494,11.1573926 10.1967133,11.4041218 L10.1332,11.5007 C9.85664,11.9788 9.24491,12.1421 8.76685,11.8656 C8.28879,11.5891 8.12543,10.9773 8.40197,10.4993 C8.91917,9.60518 9.88833,9 11,9 Z" id="形状" fill="#09244B"></path>
            </g>
        </g>
    </g>
</svg>

<svg xmlns="http://www.w3.org/2000/svg" width="24" height="24"><g fill="none" fill-rule="nonzero"><path d="M24 0v24H0V0h24ZM12.594 23.258l-.012.002-.071.035-.02.004-.014-.004-.071-.036c-.01-.003-.019 0-.024.006l-.004.01-.017.428.005.02.01.013.104.074.015.004.012-.004.104-.074.012-.016.004-.017-.017-.427c-.002-.01-.009-.017-.016-.018Zm.264-.113-.014.002-.184.093-.01.01-.003.011.018.43.005.012.008.008.201.092c.012.004.023 0 .029-.008l.004-.014-.034-.614c-.003-.012-.01-.02-.02-.022Zm-.715.002a.023.023 0 0 0-.027.006l-.006.014-.034.614c0 .012.007.02.017.024l.015-.002.201-.093.01-.008.003-.011.018-.43-.003-.012-.01-.01-.184-.092Z"/><path fill="#09244B" d="M14.5 16a2.5 2.5 0 1 1-1.667 4.363 1 1 0 0 1 1.235-1.568l.099.078A.5.5 0 1 0 14.5 18H7a1 1 0 1 1 0-2h7.5Zm-3-14a6.502 6.502 0 0 1 6.086 4.212 6.002 6.002 0 0 1 1.25 11.077 4.508 4.508 0 0 0-3.306-3.17 5 5 0 0 0-8.86-4.62 2.986 2.986 0 0 0-.403 1.501H3c-.21 0-.413.021-.61.062A5.018 5.018 0 0 1 5 8.416 6.5 6.5 0 0 1 11.5 2ZM11 9a3 3 0 1 1 0 6H3a1 1 0 1 1 0-2h8a1 1 0 1 0-.803-1.596l-.064.097a1 1 0 0 1-1.731-1.002A3 3 0 0 1 11 9Z"/></g></svg>
